X: 1
T: Davy Nick Nack, 32R x 8
T: Each tune as written:  1 2 3,  1 2 3,  2 1
R: hornpipe, march
C: trad., arr. 1997 by John Chambers
C: further arr. by T. Traub 10-31-2002
M: 4/4
L: 1/8
K: G
|: D2 \
| "G"GFGA "G/F#"B2B2 | "G/E"GFGA "G/D"B2B2 | "Am7"dcBc "D"A2 A2 | "Am7"dcBc "D"A2 A2| \
"G"GFGA "G/F#"B2B2 | "G/E"GFGA "G/D"B2B2 | "Am7"dcBc "D7"AcBA | "G"G2 g2 G2 :|
|: Bc \
| "G"d3c "G/F#"B2d2 | "G/E".g2.g2 "G/D"d4 | "Am7"dcBc "D"A2A2 | "Am7"dcBc "D7"A2 A2|\
"G"d3c "G/F#"B2d2 | "G/E".g2.g2 "G/D"d4 | "Am7"dcBc "D7"AcBA | "G"G2B2 G2 :|
